X: 1
T: Polska fr\aan Leksand
O: efter Kungs Levi Nilsson
M: 3/4
L: 1/16
S: Bronwen Bird at 2010 Fiddle Hell
K: Gm
|: D4 G2AG ^F3A | d3d- d2ed c3A | B4 BcBA G3A | B4 ABA^F D4- |
| D2G2- G2AG ^F3A | d3d- d2ed c3A | B4 BcBA G3A/G/ | ^F4 G8 :|
|: d4 BABd f3B | d4 cdcA F4- | F2 [F4-A,4-] [F4A,4] A2 | B4 G3B d3G | B4 ABA^F D4- |
| D4 [D4-A,4-] [D4A,4] | D4 G2AG ^F3A | d3d- d2ed c3A | B4 BcBA G3A/G/ | ^F4 G8 :|
